icons/svg/emergency/life_ring.svg

<?xml version="1.0" encoding="UTF-8" standalone="no"?>
<!-- Created with Inkscape (http://www.inkscape.org/) -->

<svg
   xmlns:dc="http://purl.org/dc/elements/1.1/"
   xmlns:cc="http://creativecommons.org/ns#"
   xmlns:rdf="http://www.w3.org/1999/02/22-rdf-syntax-ns#"
   xmlns:svg="http://www.w3.org/2000/svg"
   xmlns="http://www.w3.org/2000/svg"
   xmlns:sodipodi="http://sodipodi.sourceforge.net/DTD/sodipodi-0.dtd"
   xmlns:inkscape="http://www.inkscape.org/namespaces/inkscape"
   version="1.0"
   width="580"
   height="580"
   id="svg2"
   sodipodi:version="0.32"
   inkscape:version="0.91 r13725"
   sodipodi:docname="life_ring.svg"
   inkscape:output_extension="org.inkscape.output.svg.inkscape">
  <defs
     id="defs22">
    <inkscape:perspective
       sodipodi:type="inkscape:persp3d"
       inkscape:vp_x="0 : 290 : 1"
       inkscape:vp_y="0 : 1000 : 0"
       inkscape:vp_z="580 : 290 : 1"
       inkscape:persp3d-origin="290 : 193.33333 : 1"
       id="perspective24" />
    <marker
       viewBox="0 0 10 10"
       refY="5"
       refX="10"
       orient="auto"
       markerWidth="4"
       markerUnits="strokeWidth"
       markerHeight="3"
       id="ArrowStart">
      <path
         id="path3568"
         d="M 10 0 L 0 5 L 10 10 z" />
    </marker>
    <marker
       viewBox="0 0 10 10"
       refY="5"
       refX="0"
       orient="auto"
       markerWidth="4"
       markerUnits="strokeWidth"
       markerHeight="3"
       id="ArrowEnd">
      <path
         id="path3565"
         d="M 0 0 L 10 5 L 0 10 z" />
    </marker>
    <inkscape:perspective
       id="perspective2683"
       inkscape:persp3d-origin="306.082 : 204.39034 : 1"
       inkscape:vp_z="612.164 : 306.58551 : 1"
       inkscape:vp_y="0 : 1000 : 0"
       inkscape:vp_x="0 : 306.58551 : 1"
       sodipodi:type="inkscape:persp3d" />
    <marker
       viewBox="0 0 10 10"
       refY="5"
       refX="10"
       orient="auto"
       markerWidth="4"
       markerUnits="strokeWidth"
       markerHeight="3"
       id="marker2959">
      <path
         id="path2626"
         d="M 10 0 L 0 5 L 10 10 z" />
    </marker>
    <marker
       viewBox="0 0 10 10"
       refY="5"
       refX="0"
       orient="auto"
       markerWidth="4"
       markerUnits="strokeWidth"
       markerHeight="3"
       id="marker2956">
      <path
         id="path2623"
         d="M 0 0 L 10 5 L 0 10 z" />
    </marker>
    <inkscape:perspective
       id="perspective2953"
       inkscape:persp3d-origin="306.082 : 204.39034 : 1"
       inkscape:vp_z="612.164 : 306.58551 : 1"
       inkscape:vp_y="0 : 1000 : 0"
       inkscape:vp_x="0 : 306.58551 : 1"
       sodipodi:type="inkscape:persp3d" />
  </defs>
  <metadata
     id="metadata10">
    <rdf:RDF>
      <cc:Work
         rdf:about="">
        <dc:format>image/svg+xml</dc:format>
        <dc:type
           rdf:resource="http://purl.org/dc/dcmitype/StillImage" />
        <cc:license
           rdf:resource="http://web.resource.org/cc/PublicDomain" />
        <dc:language>en</dc:language>
      </cc:Work>
    </rdf:RDF>
  </metadata>
  <sodipodi:namedview
     inkscape:window-height="1051"
     inkscape:window-width="1920"
     inkscape:pageshadow="2"
     inkscape:pageopacity="0.0"
     guidetolerance="10.0"
     gridtolerance="10.0"
     objecttolerance="10.0"
     borderopacity="1.0"
     bordercolor="#666666"
     pagecolor="#ffffff"
     id="base"
     showgrid="false"
     inkscape:zoom="0.70710678"
     inkscape:cx="152.81388"
     inkscape:cy="415.25176"
     inkscape:window-x="0"
     inkscape:window-y="0"
     inkscape:current-layer="svg2"
     inkscape:window-maximized="1" />
  <g
     id="g1327">
    <path
       d="M 66.275,1.768 C 24.94,1.768 1.704,23.139 1.704,66.804 L 1.704,516.927 C 1.704,557.771 22.598,579.156 63.896,579.156 L 515.92,579.156 C 557.227,579.156 578.149,558.84 578.149,516.927 L 578.149,66.804 C 578.149,24.203 557.227,1.768 514.627,1.768 C 514.624,1.768 66.133,1.625 66.275,1.768 z"
       style="fill:#111111;stroke:#eeeeee;stroke-width:3.40799999"
       id="path1329" />
  </g>
  <g
     id="g2319"
     transform="translate(879.29125,36.805119)">
    <path
       id="path2323"
       style="fill:#ffffff;stroke:none"
       d="" />
  </g>
  <g
     id="g2325"
     transform="translate(879.29125,36.805119)">
    <path
       id="path2329"
       style="fill:#ffffff;stroke:none"
       d="" />
  </g>
  <g
     id="g7"
     inkscape:output_extension="org.inkscape.output.svg.inkscape"
     inkscape:version="0.46"
     sodipodi:docname="waste_bin.svg"
     sodipodi:version="0.32">
    <path
       style="fill:#ffffff"
       inkscape:connector-curvature="0"
       d="m 359.905,512.149 c 2.051,-0.645 4.095,-1.32 6.125,-2.022 0.279,-0.096 0.557,-0.192 0.839,-0.292 1.855,-0.651 3.702,-1.318 5.541,-2.017 0.245,-0.089 0.493,-0.185 0.735,-0.273 6.214,-2.375 12.326,-5.01 18.325,-7.909 0.33,-0.161 0.663,-0.324 0.996,-0.488 1.654,-0.804 3.299,-1.635 4.932,-2.481 0.362,-0.188 0.722,-0.372 1.084,-0.563 1.781,-0.935 3.549,-1.894 5.308,-2.873 0.139,-0.078 0.277,-0.148 0.412,-0.228 3.87,-2.174 7.681,-4.46 11.432,-6.861 0.343,-0.215 0.682,-0.442 1.024,-0.657 1.493,-0.972 2.98,-1.955 4.455,-2.957 0.413,-0.279 0.825,-0.563 1.237,-0.848 1.495,-1.029 2.977,-2.077 4.449,-3.144 0.3,-0.215 0.603,-0.43 0.901,-0.649 3.573,-2.616 7.079,-5.336 10.515,-8.167 0.293,-0.242 0.583,-0.488 0.878,-0.736 1.387,-1.153 2.763,-2.323 4.125,-3.516 0.405,-0.354 0.811,-0.713 1.216,-1.068 1.298,-1.149 2.587,-2.318 3.862,-3.497 0.354,-0.33 0.709,-0.657 1.063,-0.983 18.353,-17.214 34.211,-37.708 46.613,-61.208 11.713,-22.192 19.468,-45.419 23.545,-68.877 l 0,0 c 0,-0.006 0,-0.016 0.002,-0.022 3.216,-18.514 4.133,-37.17 2.864,-55.578 0,-0.002 0,-0.008 0,-0.009 -0.155,-2.257 -0.345,-4.508 -0.564,-6.755 -0.009,-0.078 -0.016,-0.158 -0.023,-0.236 -0.678,-6.838 -1.654,-13.636 -2.929,-20.37 -0.005,-0.02 -0.007,-0.037 -0.011,-0.059 -0.405,-2.149 -0.848,-4.289 -1.313,-6.424 -0.044,-0.19 -0.083,-0.382 -0.127,-0.571 -0.468,-2.114 -0.96,-4.22 -1.485,-6.317 -0.013,-0.05 -0.023,-0.102 -0.039,-0.153 -1.113,-4.434 -2.354,-8.835 -3.726,-13.195 -0.005,-0.018 -0.012,-0.032 -0.017,-0.05 -0.643,-2.052 -1.322,-4.094 -2.024,-6.126 -0.097,-0.278 -0.192,-0.556 -0.291,-0.834 -0.648,-1.858 -1.321,-3.708 -2.018,-5.55 -0.091,-0.242 -0.183,-0.486 -0.272,-0.729 -2.372,-6.214 -5.011,-12.327 -7.907,-18.325 -0.164,-0.333 -0.325,-0.665 -0.487,-0.997 -0.81,-1.654 -1.638,-3.299 -2.486,-4.934 -0.185,-0.36 -0.371,-0.72 -0.561,-1.079 -0.935,-1.783 -1.894,-3.557 -2.878,-5.317 -0.076,-0.134 -0.146,-0.271 -0.223,-0.403 -2.173,-3.873 -4.463,-7.685 -6.858,-11.437 -0.219,-0.341 -0.441,-0.676 -0.661,-1.015 -0.969,-1.498 -1.955,-2.987 -2.961,-4.467 -0.278,-0.409 -0.557,-0.819 -0.838,-1.227 -1.034,-1.5 -2.087,-2.988 -3.157,-4.466 -0.214,-0.296 -0.423,-0.592 -0.638,-0.886 -2.616,-3.576 -5.34,-7.084 -8.171,-10.521 -0.241,-0.292 -0.488,-0.58 -0.731,-0.871 -1.156,-1.392 -2.33,-2.769 -3.522,-4.136 -0.353,-0.403 -0.707,-0.805 -1.063,-1.205 -1.152,-1.303 -2.322,-2.594 -3.509,-3.875 -0.325,-0.351 -0.646,-0.703 -0.974,-1.051 C 442.706,112.291 422.212,96.429 398.711,84.026 356.834,61.924 311.285,53.877 267.44,58.183 c -0.061,0.007 -0.123,0.013 -0.186,0.019 -6.849,0.679 -13.657,1.654 -20.403,2.933 -0.007,0.002 -0.016,0.003 -0.022,0.006 -2.161,0.408 -4.315,0.85 -6.463,1.32 -0.181,0.038 -0.362,0.078 -0.543,0.12 -2.121,0.469 -4.238,0.963 -6.343,1.492 -0.045,0.011 -0.092,0.021 -0.137,0.033 -4.436,1.112 -8.838,2.356 -13.201,3.727 -0.014,0.006 -0.028,0.01 -0.043,0.015 -2.055,0.646 -4.098,1.324 -6.132,2.026 -0.278,0.097 -0.555,0.194 -0.834,0.292 -1.856,0.647 -3.705,1.319 -5.545,2.015 -0.244,0.092 -0.49,0.185 -0.736,0.276 -6.21,2.371 -12.321,5.009 -18.319,7.905 -0.337,0.161 -0.672,0.328 -1.007,0.493 -1.65,0.806 -3.292,1.632 -4.921,2.477 -0.364,0.189 -0.727,0.376 -1.088,0.565 -1.778,0.934 -3.547,1.891 -5.303,2.87 -0.14,0.079 -0.278,0.153 -0.418,0.229 -3.868,2.174 -7.678,4.46 -11.428,6.857 -0.344,0.219 -0.685,0.446 -1.029,0.668 -1.493,0.966 -2.976,1.948 -4.447,2.949 -0.416,0.283 -0.83,0.565 -1.242,0.849 -1.493,1.028 -2.972,2.075 -4.441,3.14 -0.303,0.22 -0.609,0.435 -0.91,0.656 -3.572,2.614 -7.079,5.335 -10.509,8.163 -0.299,0.244 -0.591,0.495 -0.888,0.741 -1.385,1.153 -2.756,2.321 -4.116,3.509 -0.409,0.355 -0.814,0.717 -1.221,1.075 -1.298,1.146 -2.582,2.312 -3.855,3.49 -0.356,0.331 -0.716,0.659 -1.07,0.992 -18.35,17.211 -34.209,37.704 -46.61,61.201 -22.101,41.874 -30.149,87.424 -25.845,131.266 0.009,0.065 0.015,0.13 0.021,0.194 0.679,6.849 1.655,13.655 2.932,20.397 0.001,0.011 0.004,0.023 0.007,0.032 0.408,2.158 0.85,4.308 1.319,6.451 0.04,0.185 0.078,0.369 0.12,0.555 0.469,2.116 0.964,4.227 1.49,6.329 0.011,0.05 0.023,0.099 0.035,0.149 1.114,4.433 2.355,8.835 3.729,13.193 0.002,0.017 0.007,0.03 0.011,0.045 0.646,2.055 1.326,4.098 2.026,6.133 0.098,0.278 0.194,0.553 0.294,0.833 0.646,1.858 1.319,3.701 2.012,5.541 0.096,0.248 0.185,0.495 0.278,0.743 2.372,6.209 5.009,12.319 7.905,18.318 0.163,0.334 0.327,0.67 0.491,1.003 0.806,1.651 1.633,3.29 2.479,4.921 0.188,0.365 0.376,0.729 0.568,1.092 0.933,1.779 1.886,3.547 2.868,5.301 0.077,0.138 0.152,0.279 0.231,0.418 2.171,3.871 4.459,7.682 6.855,11.431 0.22,0.342 0.446,0.684 0.668,1.029 0.964,1.492 1.948,2.975 2.948,4.448 0.282,0.415 0.564,0.829 0.851,1.242 1.027,1.488 2.072,2.968 3.133,4.436 0.223,0.304 0.439,0.611 0.662,0.917 2.612,3.571 5.335,7.075 8.161,10.506 0.246,0.295 0.499,0.593 0.746,0.891 1.151,1.381 2.319,2.753 3.503,4.11 0.358,0.411 0.719,0.821 1.08,1.226 1.146,1.294 2.306,2.58 3.483,3.847 0.333,0.361 0.664,0.721 0.999,1.081 17.212,18.349 37.701,34.204 61.199,46.607 22.192,11.712 45.42,19.467 68.876,23.542 l 0,0 c 0.007,0.004 0.018,0.004 0.026,0.004 18.514,3.219 37.167,4.132 55.576,2.865 10e-4,0 0.004,0 0.005,0 2.26,-0.157 4.513,-0.346 6.763,-0.566 0.075,-0.009 0.152,-0.017 0.229,-0.021 6.841,-0.679 13.641,-1.656 20.376,-2.931 0.017,-0.005 0.033,-0.005 0.047,-0.009 2.151,-0.409 4.298,-0.852 6.434,-1.314 0.19,-0.045 0.38,-0.083 0.569,-0.128 2.112,-0.465 4.215,-0.959 6.313,-1.484 0.055,-0.012 0.106,-0.024 0.161,-0.037 4.432,-1.113 8.833,-2.355 13.192,-3.727 0.017,-0.003 0.033,-0.007 0.049,-0.016 z M 494.163,397.756 c -11.124,21.08 -25.174,39.982 -41.616,56.31 l -59.793,-51.278 c 12.707,-11.576 23.661,-25.508 32.147,-41.587 9.411,-17.831 14.928,-36.678 16.867,-55.576 l 75.835,23.616 c -4.099,23.616 -11.925,46.703 -23.44,68.515 z M 145.565,334.643 c -6.084,-19.683 -8.061,-39.973 -6.046,-59.867 l -0.022,-0.007 c 1.936,-19.105 7.552,-37.85 16.785,-55.344 8.326,-15.775 19.148,-29.698 31.96,-41.357 l 0.016,0.014 c 16.192,-14.737 35.561,-25.859 57.101,-32.517 19.681,-6.083 39.969,-8.061 59.865,-6.046 l 0.007,-0.021 c 19.106,1.936 37.851,7.551 55.345,16.785 15.777,8.328 29.699,19.149 41.359,31.959 l -0.016,0.018 c 14.739,16.191 25.859,35.561 32.517,57.1 6.083,19.681 8.062,39.971 6.046,59.866 l 0.021,0.007 c -1.937,19.104 -7.553,37.849 -16.786,55.344 -8.326,15.774 -19.147,29.698 -31.959,41.358 l -0.017,-0.013 c -16.191,14.734 -35.561,25.855 -57.1,32.515 -19.681,6.083 -39.971,8.061 -59.866,6.045 l -0.006,0.023 c -19.107,-1.935 -37.851,-7.552 -55.344,-16.786 -15.775,-8.325 -29.698,-19.148 -41.358,-31.96 l 0.013,-0.015 C 163.344,375.55 152.222,356.18 145.565,334.643 Z m 308.5,-207.192 -51.278,59.795 C 391.21,174.54 377.279,163.584 361.201,155.098 343.37,145.688 324.521,140.17 305.624,138.233 l 23.617,-75.835 c 23.616,4.098 46.703,11.927 68.515,23.438 21.08,11.126 39.982,25.174 56.309,41.615 z m -326.613,-1.515 59.795,51.277 c -12.707,11.577 -23.662,25.507 -32.149,41.586 -9.409,17.831 -14.927,36.68 -16.865,55.576 L 62.396,250.76 c 4.1,-23.618 11.928,-46.703 23.44,-68.516 11.125,-21.078 25.175,-39.982 41.616,-56.308 z m 54.79,368.229 c -21.075,-11.123 -39.979,-25.178 -56.305,-41.618 l 51.278,-59.794 c 11.575,12.707 25.507,23.664 41.585,32.148 17.831,9.41 36.679,14.929 55.575,16.867 l -23.614,75.835 c -23.619,-4.097 -46.705,-11.926 -68.519,-23.438 z"
       id="path9" />
  </g>
  <circle
     style="color:#000000;clip-rule:nonzero;display:inline;overflow:visible;visibility:visible;opacity:1;isolation:auto;mix-blend-mode:normal;color-interpolation:sRGB;color-interpolation-filters:linearRGB;solid-color:#000000;solid-opacity:1;fill:none;fill-opacity:0.13855423;fill-rule:nonzero;stroke:#ffffff;stroke-width:15;stroke-linecap:butt;stroke-linejoin:miter;stroke-miterlimit:4;stroke-dasharray:none;stroke-dashoffset:0;stroke-opacity:1;marker:none;color-rendering:auto;image-rendering:auto;shape-rendering:auto;text-rendering:auto;enable-background:accumulate"
     id="path4143"
     cx="290"
     cy="290"
     r="145.54114" />
  <circle
     style="color:#000000;clip-rule:nonzero;display:inline;overflow:visible;visibility:visible;opacity:1;isolation:auto;mix-blend-mode:normal;color-interpolation:sRGB;color-interpolation-filters:linearRGB;solid-color:#000000;solid-opacity:1;fill:none;fill-opacity:0.13855423;fill-rule:nonzero;stroke:#ffffff;stroke-width:15;stroke-linecap:butt;stroke-linejoin:miter;stroke-miterlimit:4;stroke-dasharray:none;stroke-dashoffset:0;stroke-opacity:1;marker:none;color-rendering:auto;image-rendering:auto;shape-rendering:auto;text-rendering:auto;enable-background:accumulate"
     id="path4143-3"
     cx="290"
     cy="290"
     r="237.64479" />
</svg>

<svg width="580" height="580" viewBox="0 0 580 580" fill="none" xmlns="http://www.w3.org/2000/svg">
<g clip-path="url(#clip0)">
<path d="M66.2751 1.76802C24.9401 1.76802 1.7041 23.139 1.7041 66.804V516.927C1.7041 557.771 22.5981 579.156 63.8961 579.156H515.92C557.227 579.156 578.149 558.84 578.149 516.927V66.804C578.149 24.203 557.227 1.76802 514.627 1.76802C514.624 1.76802 66.1331 1.62502 66.2751 1.76802Z" fill="#111111" stroke="#EEEEEE" stroke-width="3.408"/>
<path d="M359.905 512.149C361.956 511.504 364 510.829 366.03 510.127C366.309 510.031 366.587 509.935 366.869 509.835C368.724 509.184 370.571 508.517 372.41 507.818C372.655 507.729 372.903 507.633 373.145 507.545C379.359 505.17 385.471 502.535 391.47 499.636C391.8 499.475 392.133 499.312 392.466 499.148C394.12 498.344 395.765 497.513 397.398 496.667C397.76 496.479 398.12 496.295 398.482 496.104C400.263 495.169 402.031 494.21 403.79 493.231C403.929 493.153 404.067 493.083 404.202 493.003C408.072 490.829 411.883 488.543 415.634 486.142C415.977 485.927 416.316 485.7 416.658 485.485C418.151 484.513 419.638 483.53 421.113 482.528C421.526 482.249 421.938 481.965 422.35 481.68C423.845 480.651 425.327 479.603 426.799 478.536C427.099 478.321 427.402 478.106 427.7 477.887C431.273 475.271 434.779 472.551 438.215 469.72C438.508 469.478 438.798 469.232 439.093 468.984C440.48 467.831 441.856 466.661 443.218 465.468C443.623 465.114 444.029 464.755 444.434 464.4C445.732 463.251 447.021 462.082 448.296 460.903C448.65 460.573 449.005 460.246 449.359 459.92C467.712 442.706 483.57 422.212 495.972 398.712C507.685 376.52 515.44 353.293 519.517 329.835C519.517 329.829 519.517 329.819 519.519 329.813C522.735 311.299 523.652 292.643 522.383 274.235C522.383 274.233 522.383 274.227 522.383 274.226C522.228 271.969 522.038 269.718 521.819 267.471C521.81 267.393 521.803 267.313 521.796 267.235C521.118 260.397 520.142 253.599 518.867 246.865C518.862 246.845 518.86 246.828 518.856 246.806C518.451 244.657 518.008 242.517 517.543 240.382C517.499 240.192 517.46 240 517.416 239.811C516.948 237.697 516.456 235.591 515.931 233.494C515.918 233.444 515.908 233.392 515.892 233.341C514.779 228.907 513.538 224.506 512.166 220.146C512.161 220.128 512.154 220.114 512.149 220.096C511.506 218.044 510.827 216.002 510.125 213.97C510.028 213.692 509.933 213.414 509.834 213.136C509.186 211.278 508.513 209.428 507.816 207.586C507.725 207.344 507.633 207.1 507.544 206.857C505.172 200.643 502.533 194.53 499.637 188.532C499.473 188.199 499.312 187.867 499.15 187.535C498.34 185.881 497.512 184.236 496.664 182.601C496.479 182.241 496.293 181.881 496.103 181.522C495.168 179.739 494.209 177.965 493.225 176.205C493.149 176.071 493.079 175.934 493.002 175.802C490.829 171.929 488.539 168.117 486.144 164.365C485.925 164.024 485.703 163.689 485.483 163.35C484.514 161.852 483.528 160.363 482.522 158.883C482.244 158.474 481.965 158.064 481.684 157.656C480.65 156.156 479.597 154.668 478.527 153.19C478.313 152.894 478.104 152.598 477.889 152.304C475.273 148.728 472.549 145.22 469.718 141.783C469.477 141.491 469.23 141.203 468.987 140.912C467.831 139.52 466.657 138.143 465.465 136.776C465.112 136.373 464.758 135.971 464.402 135.571C463.25 134.268 462.08 132.977 460.893 131.696C460.568 131.345 460.247 130.993 459.919 130.645C442.706 112.291 422.212 96.429 398.711 84.026C356.834 61.924 311.285 53.877 267.44 58.183C267.379 58.19 267.317 58.196 267.254 58.202C260.405 58.881 253.597 59.856 246.851 61.135C246.844 61.137 246.835 61.138 246.829 61.141C244.668 61.549 242.514 61.991 240.366 62.461C240.185 62.499 240.004 62.539 239.823 62.581C237.702 63.05 235.585 63.544 233.48 64.073C233.435 64.084 233.388 64.0941 233.343 64.1061C228.907 65.2181 224.505 66.462 220.142 67.833C220.128 67.839 220.114 67.843 220.099 67.848C218.044 68.494 216.001 69.172 213.967 69.874C213.689 69.971 213.412 70.068 213.133 70.166C211.277 70.813 209.428 71.485 207.588 72.181C207.344 72.273 207.098 72.366 206.852 72.457C200.642 74.828 194.531 77.466 188.533 80.362C188.196 80.523 187.861 80.6901 187.526 80.8551C185.876 81.6611 184.234 82.487 182.605 83.332C182.241 83.521 181.878 83.7081 181.517 83.8971C179.739 84.8311 177.97 85.788 176.214 86.767C176.074 86.846 175.936 86.92 175.796 86.996C171.928 89.17 168.118 91.456 164.368 93.853C164.024 94.072 163.683 94.299 163.339 94.521C161.846 95.487 160.363 96.469 158.892 97.47C158.476 97.753 158.062 98.035 157.65 98.319C156.157 99.347 154.678 100.394 153.209 101.459C152.906 101.679 152.6 101.894 152.299 102.115C148.727 104.729 145.22 107.45 141.79 110.278C141.491 110.522 141.199 110.773 140.902 111.019C139.517 112.172 138.146 113.34 136.786 114.528C136.377 114.883 135.972 115.245 135.565 115.603C134.267 116.749 132.983 117.915 131.71 119.093C131.354 119.424 130.994 119.752 130.64 120.085C112.29 137.296 96.4308 157.789 84.0298 181.286C61.9288 223.16 53.8808 268.71 58.1848 312.552C58.1938 312.617 58.1998 312.682 58.2058 312.746C58.8848 319.595 59.8608 326.401 61.1378 333.143C61.1388 333.154 61.1418 333.166 61.1448 333.175C61.5528 335.333 61.9948 337.483 62.4638 339.626C62.5038 339.811 62.5418 339.995 62.5838 340.181C63.0528 342.297 63.5478 344.408 64.0738 346.51C64.0848 346.56 64.0968 346.609 64.1088 346.659C65.2228 351.092 66.4638 355.494 67.8378 359.852C67.8398 359.869 67.8448 359.882 67.8488 359.897C68.4948 361.952 69.1748 363.995 69.8748 366.03C69.9728 366.308 70.0688 366.583 70.1688 366.863C70.8148 368.721 71.4878 370.564 72.1808 372.404C72.2768 372.652 72.3658 372.899 72.4588 373.147C74.8308 379.356 77.4678 385.466 80.3638 391.465C80.5268 391.799 80.6908 392.135 80.8548 392.468C81.6608 394.119 82.4878 395.758 83.3338 397.389C83.5218 397.754 83.7098 398.118 83.9018 398.481C84.8348 400.26 85.7878 402.028 86.7698 403.782C86.8468 403.92 86.9218 404.061 87.0008 404.2C89.1718 408.071 91.4598 411.882 93.8558 415.631C94.0758 415.973 94.3018 416.315 94.5238 416.66C95.4878 418.152 96.4718 419.635 97.4718 421.108C97.7538 421.523 98.0358 421.937 98.3228 422.35C99.3498 423.838 100.395 425.318 101.456 426.786C101.679 427.09 101.895 427.397 102.118 427.703C104.73 431.274 107.453 434.778 110.279 438.209C110.525 438.504 110.778 438.802 111.025 439.1C112.176 440.481 113.344 441.853 114.528 443.21C114.886 443.621 115.247 444.031 115.608 444.436C116.754 445.73 117.914 447.016 119.091 448.283C119.424 448.644 119.755 449.004 120.09 449.364C137.302 467.713 157.791 483.568 181.289 495.971C203.481 507.683 226.709 515.438 250.165 519.513C250.172 519.517 250.183 519.517 250.191 519.517C268.705 522.736 287.358 523.649 305.767 522.382C305.768 522.382 305.771 522.382 305.772 522.382C308.032 522.225 310.285 522.036 312.535 521.816C312.61 521.807 312.687 521.799 312.764 521.795C319.605 521.116 326.405 520.139 333.14 518.864C333.157 518.859 333.173 518.859 333.187 518.855C335.338 518.446 337.485 518.003 339.621 517.541C339.811 517.496 340.001 517.458 340.19 517.413C342.302 516.948 344.405 516.454 346.503 515.929C346.558 515.917 346.609 515.905 346.664 515.892C351.096 514.779 355.497 513.537 359.856 512.165C359.873 512.162 359.889 512.158 359.905 512.149V512.149ZM494.163 397.756C483.039 418.836 468.989 437.738 452.547 454.066L392.754 402.788C405.461 391.212 416.415 377.28 424.901 361.201C434.312 343.37 439.829 324.523 441.768 305.625L517.603 329.241C513.504 352.857 505.678 375.944 494.163 397.756V397.756ZM145.565 334.643C139.481 314.96 137.504 294.67 139.519 274.776L139.497 274.769C141.433 255.664 147.049 236.919 156.282 219.425C164.608 203.65 175.43 189.727 188.242 178.068L188.258 178.082C204.45 163.345 223.819 152.223 245.359 145.565C265.04 139.482 285.328 137.504 305.224 139.519L305.231 139.498C324.337 141.434 343.082 147.049 360.576 156.283C376.353 164.611 390.275 175.432 401.935 188.242L401.919 188.26C416.658 204.451 427.778 223.821 434.436 245.36C440.519 265.041 442.498 285.331 440.482 305.226L440.503 305.233C438.566 324.337 432.95 343.082 423.717 360.577C415.391 376.351 404.57 390.275 391.758 401.935L391.741 401.922C375.55 416.656 356.18 427.777 334.641 434.437C314.96 440.52 294.67 442.498 274.775 440.482L274.769 440.505C255.662 438.57 236.918 432.953 219.425 423.719C203.65 415.394 189.727 404.571 178.067 391.759L178.08 391.744C163.344 375.55 152.222 356.18 145.565 334.643ZM454.065 127.451L402.787 187.246C391.21 174.54 377.279 163.584 361.201 155.098C343.37 145.688 324.521 140.17 305.624 138.233L329.241 62.398C352.857 66.496 375.944 74.325 397.756 85.836C418.836 96.962 437.738 111.01 454.065 127.451V127.451ZM127.452 125.936L187.247 177.213C174.54 188.79 163.585 202.72 155.098 218.799C145.689 236.63 140.171 255.479 138.233 274.375L62.3958 250.76C66.4958 227.142 74.3238 204.057 85.8358 182.244C96.9608 161.166 111.011 142.262 127.452 125.936V125.936ZM182.242 494.165C161.167 483.042 142.263 468.987 125.937 452.547L177.215 392.753C188.79 405.46 202.722 416.417 218.8 424.901C236.631 434.311 255.479 439.83 274.375 441.768L250.761 517.603C227.142 513.506 204.056 505.677 182.242 494.165V494.165Z" fill="white"/>
<path d="M290 435.541C370.38 435.541 435.541 370.38 435.541 290C435.541 209.62 370.38 144.459 290 144.459C209.62 144.459 144.459 209.62 144.459 290C144.459 370.38 209.62 435.541 290 435.541Z" stroke="white" stroke-width="15"/>
<path d="M290 527.645C421.247 527.645 527.645 421.248 527.645 290C527.645 158.752 421.247 52.3552 290 52.3552C158.752 52.3552 52.355 158.752 52.355 290C52.355 421.248 158.752 527.645 290 527.645Z" stroke="white" stroke-width="15"/>
</g>
<defs>
<clipPath id="clip0">
<path d="M0 0H580V580H0V0Z" fill="white"/>
</clipPath>
</defs>
</svg>
